docs/img/icons/heart.svg

<svg width="16" height="16" viewBox="0 0 16 16" fill="none" xmlns="http://www.w3.org/2000/svg">
<path fill-rule="evenodd" clip-rule="evenodd" d="M7.99925 13.2715C4.93321 11.5252 3.22318 9.78955 2.39626 8.28361C1.54992 6.74228 1.62377 5.4441 2.0934 4.52273C3.05872 2.62892 5.80378 2.02333 7.4763 4.13865L7.99921 4.80001L8.52217 4.13868C10.195 2.02327 12.9402 2.62896 13.9055 4.52273C14.3751 5.44408 14.4489 6.74226 13.6025 8.28359C12.7756 9.78954 11.0654 11.5252 7.99925 13.2715ZM7.99928 2.73726C5.64647 0.501518 2.17555 1.42555 0.905488 3.91723C0.20846 5.2847 0.198939 7.05212 1.22753 8.92536C2.247 10.782 4.2796 12.7417 7.67675 14.6194L7.99924 14.7976L8.32173 14.6194C11.719 12.7417 13.7517 10.782 14.7712 8.92537C15.7999 7.05214 15.7904 5.28472 15.0934 3.91723C13.8233 1.4255 10.3523 0.501552 7.99928 2.73726Z" fill="#FF5A30"/>
</svg>

<svg width="16" height="16" fill="none" xmlns="http://www.w3.org/2000/svg"><path fill-rule="evenodd" clip-rule="evenodd" d="M8 13.271C4.932 11.525 3.222 9.79 2.395 8.284c-.846-1.542-.772-2.84-.303-3.761.966-1.894 3.71-2.5 5.383-.384L8 4.8l.523-.661c1.673-2.116 4.418-1.51 5.383.384.47.921.544 2.22-.303 3.76-.826 1.507-2.537 3.242-5.603 4.989zM8 2.737C5.645.502 2.175 1.426.904 3.917.208 5.285.2 7.052 1.228 8.925c1.019 1.857 3.052 3.817 6.449 5.694l.322.179.323-.179c3.397-1.877 5.43-3.837 6.45-5.694 1.028-1.873 1.018-3.64.321-5.008C13.823 1.426 10.353.502 8 2.737z" fill="#FF5A30"/></svg>
